prototype/04-socket-without-vite/public/assets/img/emotion_img.svg

<svg fill="none" viewBox="0 0 350 253" xmlns="http://www.w3.org/2000/svg">
<path d="m175.96 85.015v-15.668c-1.858 1.2175-4.229 1.8903-6.696 2.3069v-5.1905c2.948-0.4165 6.184-2.0185 8.298-3.8769h4.934v22.428h-6.536z" fill="#ECAD0A"/>
<path d="m133.43 179.82c2.307-2.852 6.792-4.999 12.111-4.999 5.415 0 11.182 2.115 11.182 6.953 0 3.845-3.557 6.056-8.491 7.561-3.684 1.154-6.696 2.5-7.433 3.653h16.372v4.934h-24.062v-2.819c0.577-4.326 4.55-7.978 11.214-9.965 3.236-1.025 5.8-1.73 5.8-3.236s-2.403-2.275-4.87-2.275c-3.076 0-5.896 1.282-8.267 3.621l-3.556-3.428z" fill="#ECAD0A"/>
<path d="m247.61 182.58c1.763 2.051 4.39 3.236 7.754 3.236 2.755 0 5.639-0.673 5.639-2.755 0-2.115-2.723-2.467-5.863-2.467h-3.557v-4.358h3.557c2.659 0 5.222-0.544 5.222-2.243 0-1.762-2.691-2.274-5.126-2.274-3.332 0-5.799 1.217-7.465 3.172l-4.23-3.012c2.403-3.044 6.665-4.998 11.919-4.998 5.96 0 11.567 1.922 11.567 6.279 0 2.628-2.115 4.806-5.287 5.191 3.172 0.512 6.152 2.082 6.152 5.383 0 4.485-5.415 6.92-12.272 6.92-5.446 0-9.9-2.018-12.463-5.158l4.453-2.916z" fill="#ECAD0A"/>
<path d="m83.88 186.92v0.049m117.85 33.517c1.016-0.011 2.09 1e-3 3.166 0.029 5.613 0.144 9.011-3.378 8.884-8.991-0.026-1.128-0.015-2.235 0.054-3.244 0.223-3.253 1.196-5.649 1.196-8.262 0-3.326-0.251-6.667-0.623-9.953-0.157-1.377-0.573-2.659-0.573-4.041 0-1.695 0.137-3.381 0.184-5.075 0.061-2.211-0.092-4.429-0.092-6.637 0-2.303-0.066-6.969-0.086-8.355-4e-3 -0.265 0-0.523 0.013-0.788 0.021-0.421 0.058-1.154 0.103-2.062 0.295-5.974-3.891-9.956-9.87-9.778-0.811 0.024-1.606 0.034-2.356 0.025-3.29-0.042-5.595-0.722-8.424-0.856-2.023-0.095-4.049-0.191-6.08-0.252-5.498-0.168-11.059-0.098-16.572-0.098-7.017 0-14.064 0.253-20.998 0.629-2.904 0.157-5.608 0.577-8.524 0.577-3.575 0-7.132-0.138-10.705-0.186-4.666-0.062-9.344 0.093-14.003 0.093-5.744 0-11.376-0.379-17.111-0.459-5.3764-0.075-14.513-0.059-14.979-0.058h-0.0411v0c-6.1371-0.02-12.424 6.361-12.101 12.49 0.0063 0.118 0.0125 0.227 0.0188 0.326 0.1661 2.606-0.0142 5.649-0.0142 8.262 0 3.326-0.2508 6.667-0.6237 9.954-0.1561 1.376-0.5725 2.658-0.5725 4.04 0 1.695 0.137 3.381 0.184 5.075 0.0614 2.212-0.092 4.429-0.092 6.637 0 2.723 0.9209 5.312 1.1184 8.752 0.0152 0.265 0.0272 0.536 0.0363 0.811 0.2083 6.299 5.6779 11.653 11.976 11.399v0c0.4388-0.018 0.3096 0.016 0.7473 0.051 1.5594 0.126 5.5301 0.416 7.7694 0.31 2.0229-0.095 4.0489-0.191 6.0798-0.252 5.4984-0.168 11.058-0.098 16.572-0.098 7.016 0 14.063 0.252 20.997 0.628 2.904 0.158 5.609 0.578 8.524 0.578 3.576 0 7.133-0.138 10.706-0.186 4.666-0.062 9.343 0.093 14.002 0.093 5.745 0 11.376-0.379 17.111-0.459 5.518-0.077 9.482-0.607 14.998-0.669z" stroke="#FAFAFA" stroke-linecap="round" stroke-width="2.4412"/>
<path d="m255.92 119.85h-0.049m-33.517 117.85c0.011 1.017-1e-3 2.091-0.029 3.166-0.143 5.613 3.378 9.012 8.991 8.885 1.128-0.026 2.235-0.015 3.244 0.054 3.253 0.222 5.649 1.196 8.262 1.196 3.326 0 6.667-0.251 9.953-0.624 1.377-0.156 2.659-0.572 4.041-0.572 1.695 0 3.381 0.137 5.075 0.184 2.212 0.061 4.429-0.092 6.637-0.092 2.303 0 6.969-0.066 8.355-0.086 0.265-4e-3 0.523 0 0.788 0.013 0.421 0.021 1.154 0.058 2.062 0.102 5.974 0.295 9.956-3.891 9.778-9.869-0.024-0.812-0.034-1.606-0.025-2.357 0.042-3.29 0.723-5.594 0.856-8.424 0.095-2.023 0.191-4.049 0.253-6.08 0.167-5.498 0.097-11.058 0.097-16.572 0-7.016-0.252-14.063-0.628-20.997-0.158-2.904-0.578-5.609-0.578-8.524 0-3.576 0.138-7.133 0.186-10.705 0.062-4.666-0.093-9.344-0.093-14.003 0-5.745 0.379-11.376 0.459-17.111 0.075-5.376 0.059-14.512 0.059-14.979v-0.041 0c0.019-6.137-6.362-12.424-12.491-12.101-0.118 6e-3 -0.227 0.013-0.326 0.019-2.606 0.166-5.649-0.014-8.262-0.014-3.326 0-6.667-0.251-9.953-0.624-1.377-0.156-2.659-0.572-4.041-0.572-1.695 0-3.381 0.137-5.075 0.184-2.211 0.061-4.429-0.092-6.637-0.092-2.723 0-5.312 0.921-8.752 1.118-0.265 0.015-0.536 0.027-0.811 0.036-6.299 0.209-11.653 5.678-11.399 11.976v0c0.018 0.439-0.016 0.309-0.051 0.747-0.126 1.559-0.416 5.53-0.31 7.77 0.095 2.022 0.191 4.048 0.253 6.079 0.167 5.499 0.098 11.059 0.098 16.572 0 7.017-0.253 14.064-0.629 20.998-0.158 2.904-0.578 5.609-0.578 8.524 0 3.575 0.138 7.132 0.186 10.705 0.062 4.666-0.093 9.344-0.093 14.003 0 5.744 0.379 11.376 0.459 17.111 0.077 5.518 0.608 9.482 0.669 14.997z" stroke="#FAFAFA" stroke-linecap="round" stroke-width="2.4412"/>
<path d="m180.24 14.88h-0.049m-33.518 117.85c0.012 1.017-1e-3 2.09-0.028 3.166-0.144 5.613 3.378 9.011 8.991 8.884 1.128-0.026 2.235-0.015 3.243 0.054 3.253 0.223 5.649 1.196 8.263 1.196 3.326 0 6.666-0.25 9.953-0.623 1.377-0.156 2.659-0.573 4.041-0.573 1.695 0 3.381 0.137 5.074 0.184 2.212 0.062 4.429-0.092 6.638-0.092 2.302 0 6.969-0.066 8.355-0.086 0.265-4e-3 0.522 0 0.787 0.014 0.421 0.021 1.155 0.057 2.063 0.102 5.973 0.295 9.955-3.891 9.778-9.869-0.024-0.812-0.035-1.607-0.025-2.357 0.041-3.29 0.722-5.595 0.855-8.424 0.096-2.023 0.191-4.049 0.253-6.08 0.168-5.498 0.098-11.059 0.098-16.572 0-7.0167-0.253-14.064-0.629-20.997-0.157-2.904-0.577-5.6089-0.577-8.5242 0-3.5756 0.138-7.1327 0.185-10.706 0.062-4.6659-0.093-9.3439-0.093-14.002 0-5.7448 0.379-11.376 0.459-17.111 0.075-5.3764 0.06-14.512 0.059-14.979v-0.0411 0c0.019-6.1371-6.361-12.424-12.49-12.101-0.119 0.00624-0.228 0.01251-0.326 0.01879-2.606 0.16609-5.649-0.01419-8.263-0.01419-3.326 0-6.666-0.25082-9.953-0.62369-1.376-0.15618-2.659-0.57257-4.041-0.57257-1.694 0-3.381 0.13704-5.074 0.18404-2.212 0.06138-4.429-0.09202-6.638-0.09202-2.723 0-5.311 0.92094-8.752 1.1184-0.264 0.01519-0.535 0.02719-0.81 0.03629-6.3 0.20827-11.653 5.6779-11.399 11.975v0c0.017 0.4388-0.016 0.3096-0.051 0.7474-0.126 1.5593-0.416 5.5301-0.311 7.7693 0.096 2.0229 0.191 4.0489 0.253 6.0798 0.168 5.4982 0.098 11.059 0.098 16.572 0 7.0165-0.253 14.064-0.629 20.997-0.157 2.904-0.577 5.609-0.577 8.5242 0 3.5756 0.138 7.1327 0.185 10.706 0.062 4.666-0.092 9.3439-0.092 14.002 0 5.745 0.378 11.376 0.458 17.111 0.077 5.518 0.608 9.482 0.669 14.998z" stroke="#FAFAFA" stroke-linecap="round" stroke-width="2.4412"/>
<path d="m65.885 81.124c0.2142-0.371 0.4093-0.7268 0.7547-1.0121 0.6423-0.641 0.9268-1.4558 1.3431-2.2279 1.0614-1.9684 2.0349-3.9628 3.0825-5.9403 1.0886-2.0551 1.8819-4.2326 3.046-6.2489 0.9439-1.6349 2.0339-3.1948 2.9226-4.8652 0.6804-1.2791 1.2743-2.6008 1.9988-3.8558 0.5908-1.0231 1.5245-1.7499 2.2576-2.6856 1.7503-2.2342 3.3715-6.8675 4.7933-9.3301m-20.235 36.145c-0.3046-0.3012-0.9196-1.4585-1.1082-1.865-0.284-0.6121-0.8116-0.9073-1.2795-1.334-1.1929-1.0878-2.4375-2.1014-3.6427-3.178-1.2523-1.1188-2.7062-1.991-3.901-3.1722-0.969-0.9578-1.8267-2.0363-2.8433-2.9489-0.8277-0.7431-1.484 0.7571-1.2703 1.8487 0.0591 0.3019 0.0946 0.5468 0.0875 0.6473-0.0144 0.2053 0.025 0.6841 0.0996 0.8425 0.3551 0.7549 0.5638 1.5626 0.9335 2.3164 0.2643 0.5388 0.5288 1.0786 0.7596 1.6298 0.625 1.4922 1.0141 3.073 1.47 4.6197 0.5802 1.9684 0.9056 4.0211 1.0965 6.079 0.0799 0.8619-0.1235 1.7466 0.1176 2.5644 0.2956 1.0031 0.7303 1.9595 1.074 2.9476 0.4488 1.2904 0.6782 2.6491 1.0634 3.956 0.564 1.9133 1.2336 3.8463 2.5282 5.3643 0.1232 0.144 0.2234 0.246 0.2861 0.282 0.371 0.214 0.7267 0.409 1.012 0.755 0.4298 0.52 1.0149 0.672 1.5757 0.966 1.4295 0.751 2.8902 1.416 4.3287 2.152 1.4949 0.766 3.1222 1.241 4.5772 2.081 1.1799 0.681 2.2828 1.508 3.4974 2.133 0.9301 0.479 1.1285 0.424 2.8099 1.395 0.3236 0.187 0.8971 0.324 1.6124 0.424 5.3448 0.748 10.26-2.399 13.809-6.465 1.3593-1.557 2.6221-3.207 3.6481-4.984 0.8063-1.3969 1.6833-2.7684 2.3333-4.2498 0.24-0.5472 0.449-1.1109 0.657-1.6739 0.291-0.7874 0.733-1.4954 1.035-2.273 0.063-0.1632 0.383-0.5218 0.542-0.6529 0.267-0.2209 1.428-1.9902 1.425-2.2736m-12.599-2.0278c0.4376-0.8893 0.8434-1.7942 1.2483-2.6978 0.5663-1.264 1.2848-2.4521 1.861-3.7044 0.1209-0.2629 0.597-0.8925 0.8198-1.1346 0.3755-0.4081 2.2395-3.3942 2.3172-3.818m-8.8246-11.088c-0.6352 1.2315-1.2381 2.4778-1.8398 3.7223-0.8416 1.7409-1.8374 3.4093-2.6879 5.1367-0.1785 0.3626-0.8111 1.2631-1.098 1.6164-0.4837 0.5954-3.0505 4.7989-3.2094 5.3632" stroke="#FAFAFA" stroke-linecap="round" stroke-linejoin="round" stroke-width="2"/>
<path d="m86.488 30.014c-1.2262 0-2.3787-0.108-3.5105 0.4579-1.1933 0.5967-2.4606 1.7351-2.866 3.0526-0.8648 2.8107-0.4918 5.9336-0.4918 8.8524" stroke="#FAFAFA" stroke-linecap="round"/>
<path d="m96.194 48.284c1.1844-0.3174 2.3256-0.5113 3.2723-1.3509 0.9978-0.8851 1.9278-2.3128 1.9788-3.6903 0.107-2.9388-1.061-5.8587-1.8166-8.6781" stroke="#FAFAFA" stroke-linecap="round"/>
<path d="m85.835 23.2c-1.8891-0.1836-3.9653-0.7534-5.7354 0.1071-2.2867 1.1116-3.6606 3.2782-4.8397 5.442-1.2973 2.3807-2.0731 4.9804-2.3647 7.6761-0.107 0.9891-0.385 3.961-0.2887 2.9707" stroke="#FAFAFA" stroke-linecap="round"/>
<path d="m98.588 54.697c1.8725-0.3116 4.0255-0.2985 5.5125-1.5878 1.921-1.6656 2.687-4.114 3.266-6.5093 0.637-2.6353 0.713-5.3472 0.297-8.0265-0.152-0.9832-0.653-3.9257-0.49-2.9443" stroke="#FAFAFA" stroke-linecap="round"/>
</svg>

<svg width="350" height="253" viewBox="0 0 350 253" fill="none" xmlns="http://www.w3.org/2000/svg">
<path d="M175.965 85.0146V69.3471C174.107 70.5646 171.736 71.2374 169.269 71.654V66.4635C172.217 66.047 175.453 64.445 177.567 62.5866H182.501V85.0146H175.965Z" fill="#ECAD0A"/>
<path d="M133.43 179.817C135.737 176.965 140.222 174.818 145.541 174.818C150.956 174.818 156.723 176.933 156.723 181.771C156.723 185.616 153.166 187.827 148.232 189.332C144.548 190.486 141.536 191.832 140.799 192.985H157.171V197.919H133.109V195.1C133.686 190.774 137.659 187.122 144.323 185.135C147.559 184.11 150.123 183.405 150.123 181.899C150.123 180.393 147.72 179.624 145.253 179.624C142.177 179.624 139.357 180.906 136.986 183.245L133.43 179.817Z" fill="#ECAD0A"/>
<path d="M247.609 182.584C249.372 184.635 251.999 185.82 255.363 185.82C258.118 185.82 261.002 185.147 261.002 183.065C261.002 180.95 258.279 180.598 255.139 180.598H251.582V176.24H255.139C257.798 176.24 260.361 175.696 260.361 173.997C260.361 172.235 257.67 171.723 255.235 171.723C251.903 171.723 249.436 172.94 247.77 174.895L243.54 171.883C245.943 168.839 250.205 166.885 255.459 166.885C261.419 166.885 267.026 168.807 267.026 173.164C267.026 175.792 264.911 177.97 261.739 178.355C264.911 178.867 267.891 180.437 267.891 183.738C267.891 188.223 262.476 190.658 255.619 190.658C250.173 190.658 245.719 188.64 243.156 185.5L247.609 182.584Z" fill="#ECAD0A"/>
<path d="M83.8798 186.919V186.968M201.729 220.485C202.745 220.474 203.819 220.486 204.895 220.514C210.508 220.658 213.906 217.136 213.779 211.523C213.753 210.395 213.764 209.288 213.833 208.279C214.056 205.026 215.029 202.63 215.029 200.017C215.029 196.691 214.778 193.35 214.406 190.064C214.249 188.687 213.833 187.405 213.833 186.023C213.833 184.328 213.97 182.642 214.017 180.948C214.078 178.737 213.925 176.519 213.925 174.311C213.925 172.008 213.859 167.342 213.839 165.956C213.835 165.691 213.839 165.433 213.852 165.168C213.873 164.747 213.91 164.014 213.955 163.106C214.25 157.132 210.064 153.15 204.085 153.328C203.274 153.352 202.479 153.362 201.729 153.353C198.439 153.311 196.134 152.631 193.305 152.497C191.282 152.402 189.256 152.306 187.225 152.245C181.727 152.077 176.166 152.147 170.653 152.147C163.636 152.147 156.589 152.4 149.655 152.776C146.751 152.933 144.047 153.353 141.131 153.353C137.556 153.353 133.999 153.215 130.426 153.167C125.76 153.105 121.082 153.26 116.423 153.26C110.679 153.26 105.047 152.881 99.3124 152.801C93.936 152.726 84.7998 152.742 84.3334 152.743C84.3184 152.743 84.3073 152.743 84.2923 152.743V152.743C78.1552 152.723 71.8685 159.104 72.1915 165.233C72.1978 165.351 72.204 165.46 72.2103 165.559C72.3764 168.165 72.1961 171.208 72.1961 173.821C72.1961 177.147 71.9453 180.488 71.5724 183.775C71.4163 185.151 70.9999 186.433 70.9999 187.815C70.9999 189.51 71.1369 191.196 71.1839 192.89C71.2453 195.102 71.0919 197.319 71.0919 199.527C71.0919 202.25 72.0128 204.839 72.2103 208.279C72.2255 208.544 72.2375 208.815 72.2466 209.09C72.4549 215.389 77.9245 220.743 84.2221 220.489V220.489C84.6609 220.471 84.5317 220.505 84.9694 220.54C86.5288 220.666 90.4995 220.956 92.7388 220.85C94.7617 220.755 96.7877 220.659 98.8186 220.598C104.317 220.43 109.877 220.5 115.391 220.5C122.407 220.5 129.454 220.752 136.388 221.128C139.292 221.286 141.997 221.706 144.912 221.706C148.488 221.706 152.045 221.568 155.618 221.52C160.284 221.458 164.961 221.613 169.62 221.613C175.365 221.613 180.996 221.234 186.731 221.154C192.249 221.077 196.213 220.547 201.729 220.485Z" stroke="#FAFAFA" stroke-width="2.44118" stroke-linecap="round"/>
<path d="M255.919 119.851L255.87 119.851M222.353 237.699C222.364 238.716 222.352 239.79 222.324 240.865C222.181 246.478 225.702 249.877 231.315 249.75C232.443 249.724 233.55 249.735 234.559 249.804C237.812 250.026 240.208 251 242.821 251C246.147 251 249.488 250.749 252.774 250.376C254.151 250.22 255.433 249.804 256.815 249.804C258.51 249.804 260.196 249.941 261.89 249.988C264.102 250.049 266.319 249.896 268.527 249.896C270.83 249.896 275.496 249.83 276.882 249.81C277.147 249.806 277.405 249.81 277.67 249.823C278.091 249.844 278.824 249.881 279.732 249.925C285.706 250.22 289.688 246.034 289.51 240.056C289.486 239.244 289.476 238.45 289.485 237.699C289.527 234.409 290.208 232.105 290.341 229.275C290.436 227.252 290.532 225.226 290.594 223.195C290.761 217.697 290.691 212.137 290.691 206.623C290.691 199.607 290.439 192.56 290.063 185.626C289.905 182.722 289.485 180.017 289.485 177.102C289.485 173.526 289.623 169.969 289.671 166.397C289.733 161.731 289.578 157.053 289.578 152.394C289.578 146.649 289.957 141.018 290.037 135.283C290.112 129.907 290.096 120.771 290.096 120.304C290.096 120.289 290.096 120.278 290.096 120.263V120.263C290.115 114.126 283.734 107.839 277.605 108.162C277.487 108.168 277.378 108.175 277.279 108.181C274.673 108.347 271.63 108.167 269.017 108.167C265.691 108.167 262.35 107.916 259.064 107.543C257.687 107.387 256.405 106.971 255.023 106.971C253.328 106.971 251.642 107.108 249.948 107.155C247.737 107.216 245.519 107.063 243.311 107.063C240.588 107.063 237.999 107.984 234.559 108.181C234.294 108.196 234.023 108.208 233.748 108.217C227.449 108.426 222.095 113.895 222.349 120.193V120.193C222.367 120.632 222.333 120.502 222.298 120.94C222.172 122.499 221.882 126.47 221.988 128.71C222.083 130.732 222.179 132.758 222.241 134.789C222.408 140.288 222.339 145.848 222.339 151.361C222.339 158.378 222.086 165.425 221.71 172.359C221.552 175.263 221.132 177.968 221.132 180.883C221.132 184.458 221.27 188.015 221.318 191.588C221.38 196.254 221.225 200.932 221.225 205.591C221.225 211.335 221.604 216.967 221.684 222.702C221.761 228.22 222.292 232.184 222.353 237.699Z" stroke="#FAFAFA" stroke-width="2.44118" stroke-linecap="round"/>
<path d="M180.243 14.88L180.194 14.88M146.676 132.729C146.688 133.746 146.675 134.819 146.648 135.895C146.504 141.508 150.026 144.906 155.639 144.779C156.767 144.753 157.874 144.764 158.882 144.833C162.135 145.056 164.531 146.029 167.145 146.029C170.471 146.029 173.811 145.779 177.098 145.406C178.475 145.25 179.757 144.833 181.139 144.833C182.834 144.833 184.52 144.97 186.213 145.017C188.425 145.079 190.642 144.925 192.851 144.925C195.153 144.925 199.82 144.859 201.206 144.839C201.471 144.835 201.728 144.839 201.993 144.853C202.414 144.874 203.148 144.91 204.056 144.955C210.029 145.25 214.011 141.064 213.834 135.086C213.81 134.274 213.799 133.479 213.809 132.729C213.85 129.439 214.531 127.134 214.664 124.305C214.76 122.282 214.855 120.256 214.917 118.225C215.085 112.727 215.015 107.166 215.015 101.653C215.015 94.6363 214.762 87.5893 214.386 80.6556C214.229 77.7516 213.809 75.0467 213.809 72.1314C213.809 68.5558 213.947 64.9987 213.994 61.4259C214.056 56.76 213.901 52.082 213.901 47.4236C213.901 41.6788 214.28 36.0471 214.36 30.3125C214.435 24.9361 214.42 15.8 214.419 15.3335C214.419 15.3185 214.419 15.3074 214.419 15.2924V15.2924C214.438 9.15534 208.058 2.86862 201.929 3.19166C201.81 3.1979 201.701 3.20417 201.603 3.21045C198.997 3.37654 195.954 3.19626 193.34 3.19626C190.014 3.19626 186.674 2.94544 183.387 2.57257C182.011 2.41639 180.728 2 179.346 2C177.652 2 175.965 2.13704 174.272 2.18404C172.06 2.24542 169.843 2.09202 167.634 2.09202C164.911 2.09202 162.323 3.01296 158.882 3.21045C158.618 3.22564 158.347 3.23764 158.072 3.24674C151.772 3.45501 146.419 8.92464 146.673 15.2222V15.2222C146.69 15.661 146.657 15.5318 146.622 15.9696C146.496 17.5289 146.206 21.4997 146.311 23.7389C146.407 25.7618 146.502 27.7878 146.564 29.8187C146.732 35.3169 146.662 40.8774 146.662 46.3908C146.662 53.4073 146.409 60.4543 146.033 67.388C145.876 70.292 145.456 72.997 145.456 75.9122C145.456 79.4878 145.594 83.0449 145.641 86.6177C145.703 91.2837 145.549 95.9616 145.549 100.62C145.549 106.365 145.927 111.996 146.007 117.731C146.084 123.249 146.615 127.213 146.676 132.729Z" stroke="#FAFAFA" stroke-width="2.44118" stroke-linecap="round"/>
<path d="M65.8851 81.1242C66.0993 80.7532 66.2944 80.3974 66.6398 80.1121C67.2821 79.4711 67.5666 78.6563 67.9829 77.8842C69.0443 75.9158 70.0178 73.9214 71.0654 71.9439C72.154 69.8888 72.9473 67.7113 74.1114 65.695C75.0553 64.0601 76.1453 62.5002 77.034 60.8298C77.7144 59.5507 78.3083 58.229 79.0328 56.974C79.6236 55.9509 80.5573 55.2241 81.2904 54.2884C83.0407 52.0542 84.6619 47.4209 86.0837 44.9583M65.849 81.1034C65.5444 80.8022 64.9294 79.6449 64.7408 79.2384C64.4568 78.6263 63.9292 78.3311 63.4613 77.9044C62.2684 76.8166 61.0238 75.803 59.8186 74.7264C58.5663 73.6076 57.1124 72.7354 55.9176 71.5542C54.9486 70.5964 54.0909 69.5179 53.0743 68.6053C52.2466 67.8622 51.5903 69.3624 51.804 70.454C51.8631 70.7559 51.8986 71.0008 51.8915 71.1013C51.8771 71.3066 51.9165 71.7854 51.9911 71.9438C52.3462 72.6987 52.5549 73.5064 52.9246 74.2602C53.1889 74.799 53.4534 75.3388 53.6842 75.89C54.3092 77.3822 54.6983 78.963 55.1542 80.5097C55.7344 82.4781 56.0598 84.5308 56.2507 86.5887C56.3306 87.4506 56.1272 88.3353 56.3683 89.1531C56.6639 90.1562 57.0986 91.1126 57.4423 92.1007C57.8911 93.3911 58.1205 94.7498 58.5057 96.0567C59.0697 97.97 59.7393 99.903 61.0339 101.421C61.1571 101.565 61.2573 101.667 61.32 101.703C61.691 101.917 62.0467 102.112 62.332 102.458C62.7618 102.978 63.3469 103.13 63.9077 103.424C65.3372 104.175 66.7979 104.84 68.2364 105.576C69.7313 106.342 71.3586 106.817 72.8136 107.657C73.9935 108.338 75.0964 109.165 76.311 109.79C77.2411 110.269 77.4395 110.214 79.1209 111.185C79.4445 111.372 80.018 111.509 80.7333 111.609C86.0781 112.357 90.9932 109.21 94.5426 105.144C95.9019 103.587 97.1647 101.937 98.1907 100.16C98.997 98.7631 99.874 97.3916 100.524 95.9102C100.764 95.363 100.973 94.7993 101.181 94.2363C101.472 93.4489 101.914 92.7409 102.216 91.9633C102.279 91.8001 102.599 91.4415 102.758 91.3104C103.025 91.0895 104.186 89.3202 104.183 89.0368M91.5844 87.009C92.022 86.1197 92.4278 85.2148 92.8327 84.3112C93.399 83.0472 94.1175 81.8591 94.6937 80.6068C94.8146 80.3439 95.2907 79.7143 95.5135 79.4722C95.889 79.0641 97.753 76.078 97.8307 75.6542M89.0061 64.5659C88.3709 65.7974 87.768 67.0437 87.1663 68.2882C86.3247 70.0291 85.3289 71.6975 84.4784 73.4249C84.2999 73.7875 83.6673 74.688 83.3804 75.0413C82.8967 75.6367 80.3299 79.8402 80.171 80.4045" stroke="#FAFAFA" stroke-width="2" stroke-linecap="round" stroke-linejoin="round"/>
<path d="M86.4883 30.0142C85.2621 30.0142 84.1096 29.9062 82.9778 30.4721C81.7845 31.0688 80.5172 32.2072 80.1118 33.5247C79.247 36.3354 79.62 39.4583 79.62 42.3771" stroke="#FAFAFA" stroke-linecap="round"/>
<path d="M96.1939 48.2838C97.3783 47.9664 98.5195 47.7725 99.4662 46.9329C100.464 46.0478 101.394 44.6201 101.445 43.2426C101.552 40.3038 100.384 37.3839 99.6284 34.5645" stroke="#FAFAFA" stroke-linecap="round"/>
<path d="M85.8352 23.2C83.9461 23.0164 81.8699 22.4466 80.0998 23.3071C77.8131 24.4187 76.4392 26.5853 75.2601 28.7491C73.9628 31.1298 73.187 33.7295 72.8954 36.4252C72.7884 37.4143 72.5104 40.3862 72.6067 39.3959" stroke="#FAFAFA" stroke-linecap="round"/>
<path d="M98.5885 54.6968C100.461 54.3852 102.614 54.3983 104.101 53.109C106.022 51.4434 106.788 48.995 107.367 46.5997C108.004 43.9644 108.08 41.2525 107.664 38.5732C107.512 37.59 107.011 34.6475 107.174 35.6289" stroke="#FAFAFA" stroke-linecap="round"/>
</svg>
